icons/arrow/vertical.svg

<svg width="32" height="32" viewBox="0 0 32 32" fill="none" xmlns="http://www.w3.org/2000/svg">
<path fill-rule="evenodd" clip-rule="evenodd" d="M16.7072 2.62625L16.0001 1.91914L15.293 2.62625L7.29297 10.6262L8.70718 12.0405L15.0001 5.74757V26.2525L8.70718 19.9596L7.29297 21.3738L15.293 29.3738L16.0001 30.0809L16.7072 29.3738L24.7072 21.3738L23.293 19.9596L17.0001 26.2525V5.74758L23.293 12.0405L24.7072 10.6263L16.7072 2.62625Z" fill="black"/>
</svg>

<svg width="32" height="32" viewBox="0 0 32 32" xmlns="http://www.w3.org/2000/svg">
    <path fill-rule="evenodd" d="M16.707 2.626L16 1.92l-.707.707-8 8 1.414 1.415L15 5.747v20.505L8.707 19.96l-1.414 1.414 8 8 .707.707.707-.707 8-8-1.414-1.414L17 26.253V5.748l6.293 6.292 1.414-1.414-8-8z"/>
</svg>
